public/images/icons/swatch.svg

<svg width="32" height="32" viewBox="0 0 32 32" fill="none" xmlns="http://www.w3.org/2000/svg">
<g clip-path="url(#clip0_16607_12)">
<path fill-rule="evenodd" clip-rule="evenodd" d="M12.3193 0.75C13.4809 0.750201 14.4229 1.69194 14.4229 2.85352V27.125L11.75 29.875L7.58594 31.25L7.23438 31.2412C3.62244 31.0581 0.750142 28.0715 0.75 24.4141V2.85352C0.75 1.69181 1.69181 0.75 2.85352 0.75H12.3193ZM7.54688 22C6.44231 22 5.54688 22.8954 5.54688 24C5.54688 25.1046 6.44231 26 7.54688 26C8.65144 26 9.54688 25.1046 9.54688 24C9.54688 22.8954 8.65144 22 7.54688 22Z" fill="#9394A0" fill-opacity="0.15"/>
<path d="M7.58594 31.25C11.3614 31.25 14.4227 28.1895 14.4229 24.4141V2.85352C14.4229 1.69194 13.4809 0.7502 12.3193 0.75H2.85352C1.69181 0.75 0.75 1.69181 0.75 2.85352V24.4141C0.750146 28.1894 3.81062 31.2499 7.58594 31.25ZM7.58594 31.25H29.1465C30.3083 31.25 31.25 30.3083 31.25 29.1466V19.681C31.25 18.5193 30.3083 17.5776 29.1466 17.5776H24.4138M24.4138 17.5776C23.9908 18.0005 13.832 27.9296 13.3389 28.2185M24.4138 17.5776L29.965 11.9052C30.7864 11.0838 30.7864 9.75194 29.965 8.93049L23.2718 2.23736C22.4504 1.41591 21.1186 1.41591 20.2971 2.23736L14.4224 8.11207M7.54688 22C6.44231 22 5.54688 22.8954 5.54688 24C5.54688 25.1046 6.44231 26 7.54688 26C8.65144 26 9.54688 25.1046 9.54688 24C9.54688 22.8954 8.65144 22 7.54688 22Z" stroke="#9394A0" stroke-width="1.5" stroke-linecap="round" stroke-linejoin="round"/>
</g>
<defs>
<clipPath id="clip0_16607_12">
<rect width="32" height="32" fill="white"/>
</clipPath>
</defs>
</svg>

<svg xmlns="http://www.w3.org/2000/svg" width="32" height="32" fill="none"><g clip-path="url(#a)"><path fill="#9394a0" fill-opacity=".15" fill-rule="evenodd" d="M12.32.75c1.16 0 2.103.942 2.103 2.104v24.271l-2.673 2.75-4.164 1.375-.352-.009A6.837 6.837 0 0 1 .75 24.414V2.854C.75 1.692 1.692.75 2.854.75zM7.546 22a2 2 0 1 0 0 4 2 2 0 0 0 0-4" clip-rule="evenodd"/><path stroke="#9394a0" stroke-linecap="round" stroke-linejoin="round" stroke-width="1.5" d="M7.586 31.25a6.837 6.837 0 0 0 6.837-6.836V2.854A2.104 2.104 0 0 0 12.319.75H2.854A2.104 2.104 0 0 0 .75 2.854v21.56a6.836 6.836 0 0 0 6.836 6.836m0 0h21.56a2.103 2.103 0 0 0 2.104-2.103V19.68a2.103 2.103 0 0 0-2.103-2.103h-4.733m0 0C23.99 18 13.832 27.93 13.339 28.218m11.075-10.64 5.551-5.673a2.104 2.104 0 0 0 0-2.975l-6.693-6.693a2.103 2.103 0 0 0-2.975 0l-5.875 5.875M7.547 22a2 2 0 1 0 0 4 2 2 0 0 0 0-4"/></g><defs><clipPath id="a"><path fill="#fff" d="M0 0h32v32H0z"/></clipPath></defs></svg>
